packages/core/src/svgs/met.svg

<svg width="24" height="24" viewBox="0 0 24 24" fill="none" xmlns="http://www.w3.org/2000/svg">
<g clip-path="url(#clip0_31_13763)">
<path d="M0 0H24V24H0V0Z" fill="#7E61F8"/>
<path d="M5.14282 10.7271V15.9171C5.14282 16.2128 5.39997 16.7142 6.03854 16.7142C6.67711 16.7142 6.84854 16.1828 6.85711 15.9171V10.8814C6.91636 10.3481 7.17589 9.85718 7.58323 9.50792C7.99056 9.15866 8.51531 8.9771 9.05139 8.99993C9.57542 8.98303 10.0857 9.1694 10.4755 9.52005C10.8653 9.8707 11.1044 10.3585 11.1428 10.8814V15.9171C11.1428 16.2128 11.3914 16.7142 12.0085 16.7142C12.6214 16.7142 12.8571 16.2256 12.8571 16.0156C12.8485 14.3785 12.8571 11.0614 12.8571 10.8814C12.8571 10.5299 13.2 8.99993 15.1028 8.99993C15.621 8.98578 16.1242 9.17453 16.5053 9.52596C16.8863 9.8774 17.1151 10.3637 17.1428 10.8814V15.9171C17.1428 16.2599 17.4343 16.7142 18.0428 16.7142C18.6343 16.7142 18.8485 16.1485 18.8571 15.9171V10.7271C18.8571 8.75564 17.04 7.28564 15.1028 7.28564C14.5127 7.29948 13.9322 7.43754 13.399 7.69083C12.8658 7.94412 12.392 8.30694 12.0085 8.75564C11.6475 8.31561 11.1972 7.95709 10.6875 7.70371C10.1778 7.45033 9.62018 7.30785 9.05139 7.28564C6.16711 7.30707 5.14282 9.59993 5.14282 10.7271Z" fill="white"/>
</g>
<defs>
<clipPath id="clip0_31_13763">
<rect width="24" height="24" fill="white"/>
</clipPath>
</defs>
</svg>

<svg xmlns="http://www.w3.org/2000/svg" width="24" height="24" fill="none" viewBox="0 0 24 24"><g clip-path="url(#a)"><path fill="#7E61F8" d="M0 0h24v24H0z"/><path fill="#fff" d="M5.143 10.727v5.19c0 .296.257.797.896.797.638 0 .81-.531.818-.797v-5.036A2.117 2.117 0 0 1 9.051 9a2.03 2.03 0 0 1 2.092 1.881v5.036c0 .296.248.797.865.797.613 0 .85-.488.85-.698-.01-1.637 0-4.955 0-5.135 0-.351.342-1.881 2.245-1.881a1.99 1.99 0 0 1 2.04 1.881v5.036c0 .343.291.797.9.797.591 0 .806-.566.814-.797v-5.19c0-1.971-1.817-3.441-3.754-3.441a4.2 4.2 0 0 0-3.094 1.47 4.03 4.03 0 0 0-2.958-1.47c-2.884.021-3.908 2.314-3.908 3.441"/></g><defs><clipPath id="a"><path fill="#fff" d="M0 0h24v24H0z"/></clipPath></defs></svg>
